public/assets/svgs/compass.svg

<svg height="30" viewBox="0 0 30 30" width="30" xmlns="http://www.w3.org/2000/svg"><path d="m720 199c-8.284271 0-15-6.715729-15-15s6.715729-15 15-15 15 6.715729 15 15-6.715729 15-15 15zm0-2.727273c6.77804 0 12.272727-5.494687 12.272727-12.272727s-5.494687-12.272727-12.272727-12.272727-12.272727 5.494687-12.272727 12.272727 5.494687 12.272727 12.272727 12.272727zm7.075477-17.623326-2.890909 8.672728c-.135729.407188-.455251.72671-.862439.862439l-8.672728 2.890909c-1.066033.355345-2.080223-.658845-1.724878-1.724878l2.890909-8.672728c.135729-.407188.455251-.72671.862439-.862439l8.672728-2.890909c1.066033-.355345 2.080223.658845 1.724878 1.724878zm-8.888337 3.537739-1.81286 5.43858 5.43858-1.81286 1.81286-5.43858z" fill="#bba46f" transform="translate(-705 -169)"/></svg>

<svg xmlns="http://www.w3.org/2000/svg" width="30" height="30" viewBox="0 0 30 30">
  <path fill="#BBA46F" d="M720,199 C711.715729,199 705,192.284271 705,184 C705,175.715729 711.715729,169 720,169 C728.284271,169 735,175.715729 735,184 C735,192.284271 728.284271,199 720,199 Z M720,196.272727 C726.77804,196.272727 732.272727,190.77804 732.272727,184 C732.272727,177.22196 726.77804,171.727273 720,171.727273 C713.22196,171.727273 707.727273,177.22196 707.727273,184 C707.727273,190.77804 713.22196,196.272727 720,196.272727 Z M727.075477,178.649401 L724.184568,187.322129 C724.048839,187.729317 723.729317,188.048839 723.322129,188.184568 L714.649401,191.075477 C713.583368,191.430822 712.569178,190.416632 712.924523,189.350599 L715.815432,180.677871 C715.951161,180.270683 716.270683,179.951161 716.677871,179.815432 L725.350599,176.924523 C726.416632,176.569178 727.430822,177.583368 727.075477,178.649401 Z M718.18714,182.18714 L716.37428,187.62572 L721.81286,185.81286 L723.62572,180.37428 L718.18714,182.18714 Z" transform="translate(-705 -169)"/>
</svg>
